X: 672
T: What the D---l ails you
T: What the Devil ails you
N: Second title with "Devil" spelled out to help in computer searches.
R: reel
B: Robert Bremner "A Collection of Scots Reels or Country Dances" 1757 p.67 #2
S: http://imslp.org/wiki/A_Collection_of_Scots_Reels_or_Country_Dances_(Bremner,_Robert)
Z: 2013 John Chambers <jc:trillian.mit.edu>
M: C
L: 1/8
K: D
% - - - - - - - - - - - - - - - - - - - - - - - - -
V: 1
e |\
c>BAg agec | defd gfed |\
cBAg agec | defg Te2d :|
|: e |\
c>BAG E/E/E c2 | defd gfed |\
c>BAG E/E/E c2 | dagf Te2d :|
% - - - - - - - - - - - - - - - - - - - - - - - - -
V: 2 clef=bass middle=d
z |\
a2a2 c'2c'2 | d'2d'2 d2d2 |\
a2a2 c'2c'2 | d'2d'2 a2d :|\
|: z |
c2c2 c2c2 | d2d2 d2d2 |\
c2c2 c2c2 | d2d2 A2D :|
% - - - - - - - - - - - - - - - - - - - - - - - - -

%%sep 1 1 500
%%sep 1 1 500
